flags/cy.svg

<svg width="512" height="512" viewBox="0 0 512 512" fill="none" xmlns="http://www.w3.org/2000/svg">
<rect width="512" height="512" fill="var(--flag-palette-bright-white, #fcfcfc)"/>
<path d="M400.696 222.609C392.905 222.609 383.258 222.609 367.305 222.609C367.305 284.081 317.471 333.913 256.001 333.913C194.528 333.913 144.697 284.081 144.697 222.609C133.937 222.609 122.064 222.609 111.306 222.609C111.306 288.824 155.782 344.651 216.492 361.844C209.836 374.488 210.85 390.407 220.358 402.272C232.846 392.263 245.775 381.902 256.743 373.114C267.711 381.903 280.641 392.264 293.128 402.272C302.73 390.289 303.675 374.168 296.798 361.463C356.843 343.848 400.696 288.353 400.696 222.609Z" fill="var(--flag-palette-dark-green, #496e2d)"/>
<path d="M166.957 211.478C166.957 211.478 166.957 267.13 222.609 267.13L233.739 278.26H256C256 278.26 267.13 244.869 289.391 244.869C289.391 244.869 289.391 222.608 311.652 222.608C333.913 222.608 345.043 222.608 345.043 222.608C345.043 222.608 333.913 178.086 389.565 144.695L367.304 133.565C367.304 133.565 289.391 189.217 233.739 178.087V200.348H211.478L200.348 189.218L166.957 211.478Z" fill="var(--flag-palette-gold, #ff9811)"/>
</svg>

<svg xmlns="http://www.w3.org/2000/svg" width="512" height="512" fill="none"><path fill="var(--flag-palette-bright-white, #fcfcfc)" d="M0 0h512v512H0z"/><path fill="var(--flag-palette-dark-green, #496e2d)" d="M400.7 222.6h-33.4a111.3 111.3 0 0 1-222.6 0h-33.4c0 66.2 44.5 122 105.2 139.2a37 37 0 0 0 3.9 40.5l36.3-29.2 36.4 29.2a37 37 0 0 0 3.7-40.8 145 145 0 0 0 103.9-138.9"/><path fill="var(--flag-palette-gold, #ff9811)" d="M167 211.5s0 55.6 55.6 55.6l11.1 11.2H256s11.1-33.4 33.4-33.4c0 0 0-22.3 22.3-22.3H345s-11-44.5 44.6-78l-22.3-11s-78 55.6-133.6 44.5v22.2h-22.2l-11.2-11z"/></svg>
